img/main/icon-03.svg

<svg width="100" height="100" viewBox="0 0 100 100" fill="none" xmlns="http://www.w3.org/2000/svg">
<path d="M95 19.9998H73.3333V13.3331C73.3276 8.73267 69.6004 5.00545 65 4.99976H35C30.3996 5.00545 26.6724 8.73267 26.6667 13.3331V19.9998H5C2.23877 19.9998 0 22.2385 0 24.9998V62.0994C0.0105794 64.2136 1.34277 66.0943 3.33333 66.8048V89.9998C3.33333 92.761 5.5721 94.9998 8.33333 94.9998H91.6667C94.4279 94.9998 96.6667 92.761 96.6667 89.9998V66.8064C98.6572 66.0951 99.9902 64.2136 100 62.0994V24.9998C100 22.2385 97.7612 19.9998 95 19.9998ZM30 13.3331C30 10.5719 32.2388 8.33309 35 8.33309H65C67.7612 8.33309 70 10.5719 70 13.3331V19.9998H66.6667V13.3331C66.6667 12.4127 65.9204 11.6664 65 11.6664H35C34.0796 11.6664 33.3333 12.4127 33.3333 13.3331V19.9998H30V13.3331ZM63.3333 19.9998H36.6667V14.9998H63.3333V19.9998ZM93.3333 89.9998C93.3333 90.9202 92.5871 91.6664 91.6667 91.6664H8.33333C7.41292 91.6664 6.66667 90.9202 6.66667 89.9998V67.3777L43.3333 72.4346V76.6664C43.3333 79.4277 45.5721 81.6664 48.3333 81.6664H51.6667C54.4279 81.6664 56.6667 79.4277 56.6667 76.6664V72.4346L93.3333 67.3777V89.9998ZM53.3333 76.6664C53.3333 77.5868 52.5871 78.3331 51.6667 78.3331H48.3333C47.4129 78.3331 46.6667 77.5868 46.6667 76.6664V66.6664C46.6667 65.746 47.4129 64.9998 48.3333 64.9998H51.6667C52.5871 64.9998 53.3333 65.746 53.3333 66.6664V76.6664ZM96.6667 62.0994C96.6675 62.9303 96.0563 63.635 95.2336 63.7514L94.7713 63.8149L56.6667 69.0696V66.6664C56.6667 63.9052 54.4279 61.6664 51.6667 61.6664H48.3333C45.5721 61.6664 43.3333 63.9052 43.3333 66.6664V69.0696L4.76807 63.7514C3.94531 63.6358 3.33252 62.9311 3.33333 62.0994V24.9998C3.33333 24.0793 4.07959 23.3331 5 23.3331H95C95.9204 23.3331 96.6667 24.0793 96.6667 24.9998V62.0994Z" fill="#007A65"/>
</svg>

<svg width="100" height="100" fill="none" xmlns="http://www.w3.org/2000/svg"><path d="M95 20H73.333v-6.667A8.343 8.343 0 0065 5H35a8.343 8.343 0 00-8.333 8.333V20H5a5 5 0 00-5 5v37.1a5.022 5.022 0 003.333 4.705V90a5 5 0 005 5h83.334a5 5 0 005-5V66.806A5.024 5.024 0 00100 62.1V25a5 5 0 00-5-5zm-65-6.667a5 5 0 015-5h30a5 5 0 015 5V20h-3.333v-6.667c0-.92-.747-1.667-1.667-1.667H35c-.92 0-1.667.747-1.667 1.667V20H30v-6.667zM63.333 20H36.667v-5h26.666v5zm30 70c0 .92-.746 1.666-1.666 1.666H8.333c-.92 0-1.666-.746-1.666-1.666V67.378l36.666 5.057v4.231a5 5 0 005 5h3.334a5 5 0 005-5v-4.231l36.666-5.057V90zm-40-13.334c0 .92-.746 1.667-1.666 1.667h-3.334c-.92 0-1.666-.746-1.666-1.667v-10c0-.92.746-1.666 1.666-1.666h3.334c.92 0 1.666.746 1.666 1.666v10zM96.667 62.1c0 .831-.61 1.536-1.433 1.652l-.463.064-38.104 5.255v-2.404a5 5 0 00-5-5h-3.334a5 5 0 00-5 5v2.404L4.768 63.75a1.667 1.667 0 01-1.435-1.65V25c0-.92.747-1.666 1.667-1.666h90c.92 0 1.667.746 1.667 1.667v37.1z" fill="#007A65"/></svg>
